X: 1
T: Willa's Birthday
C: Paul Ukleja
R: jig, waltz
Z: 2012 John Chambers <jc:trillian.mit.edu>
M: 6/8
L: 1/8
K: D
|:\
"D"fga "A7"gfe | "Bm"def "G"dcB | "D"A3 d3 | "D"def "A7"ede |\
"D"fga "A7"gfe | "Bm"def "G"dcB | "D"A3 d3 | "A7"ecA "D"d2e :|2 "A7"ecA "D"dcd ||
|:\
"A7"eAA "D"fAA | "A7"gaf ecA | "A7"e2A "D"f2A | "G"gaf "A7"e2f |
"A7"eAA "D"fAA | "A7"geg "G"fed | "A7"ece gfe |1 "D"dfe dcd :|2 "D"dfe d2z |]
